frontend/public/svg/objects/flashlight.svg

<svg width="155" height="75" viewBox="0 0 155 75" fill="none" xmlns="http://www.w3.org/2000/svg">
<path d="M127.701 2.19256C126.14 1.12207 124.047 0.963253 121.805 1.74758C120.503 2.22368 119.247 2.81844 118.054 3.5243L115.199 5.15137C109.899 8.17052 104.42 11.292 99.0901 14.4713C96.3631 16.0936 93.7554 17.9085 91.2876 19.9025C90.181 20.9228 88.7285 21.4858 87.2235 21.4778H87.1848C77.3024 21.4299 67.2551 21.435 57.5411 21.4403L47.4446 21.4443V21.6629L37.2818 21.8499C27.7513 22.0249 18.2203 22.2045 8.68853 22.3887C4.93951 22.4635 2.83858 24.1438 2.07657 27.6782C1.53467 30.0165 1.22358 32.4022 1.14783 34.8013C1.02838 41.5885 1.08222 48.5582 1.13341 54.7068C1.16688 58.9034 2.91415 60.9243 6.97491 61.4671C10.2282 61.9375 13.5104 62.1798 16.7975 62.1924C21.9878 62.1366 27.261 61.9672 32.3601 61.8044C35.0327 61.7184 37.7046 61.6332 40.3772 61.563L44.4576 61.4552C59.0139 61.0713 74.0666 60.6735 88.8716 60.3565C90.437 60.2875 91.9991 60.5529 93.4542 61.135C98.8053 63.5194 104.214 66.0215 109.446 68.441C112.364 69.7904 115.284 71.1359 118.207 72.4775C119.364 72.9914 120.566 73.3996 121.796 73.6989C122.473 73.886 123.171 73.9877 123.873 74.0008C125.743 74.0008 126.904 73.0445 127.68 70.9817C128.499 68.7121 128.963 66.3292 129.059 63.9178L129.106 63.0266C129.658 52.5028 130.229 41.62 130.472 30.904C130.652 22.9544 130.395 14.9898 130.144 7.28767C130.077 5.03381 129.21 3.22957 127.701 2.19256ZM122.056 11.6916L119.773 61.9619L97.3738 52.7607L95.6319 26.0688L122.056 11.6916ZM12.299 54.4429L8.66431 54.1982C7.62074 49.2468 7.71328 34.6071 8.82118 29.4936L13.5074 29.2809L12.299 54.4429ZM87.9153 27.2483V52.1077L22.7046 54.4265C22.0179 49.3525 21.627 44.2429 21.5337 39.1234C21.411 35.9074 21.285 32.5882 21.0086 29.2461C31.8763 28.4585 42.853 28.393 53.4738 28.3273C64.7536 28.2584 76.4097 28.1888 87.9127 27.2515L87.9153 27.2483Z" fill="black"/>
<path d="M149.464 29.8288C145.684 30.1655 141.952 30.82 139.123 31.3523C138.29 31.4729 137.53 31.8954 136.988 32.5394C136.446 33.1835 136.159 34.0043 136.182 34.8459C136.195 36.6181 137.333 37.8761 139.225 38.2194C140.501 38.4241 141.786 38.5574 143.075 38.6186C143.689 38.6593 144.33 38.702 145.006 38.7604L145.079 38.767L145.151 38.7564C145.623 38.6908 146.129 38.6408 146.656 38.5877C148.06 38.4855 149.452 38.2586 150.816 37.9097C153.144 37.2435 154.371 35.2967 153.87 33.0645C153.701 32.0578 153.146 31.1568 152.323 30.5526C151.5 29.9485 150.474 29.6888 149.464 29.8288Z" fill="black"/>
<path d="M136.926 14.7667C137.097 14.845 137.263 14.9325 137.423 15.0292L137.663 15.1854L137.94 15.1165C138.273 15.0338 138.573 14.976 138.846 14.9196C139.377 14.8464 139.893 14.693 140.377 14.4642L140.935 14.1655C143.763 12.652 146.686 11.088 149.477 9.39198C150.602 8.67112 151.543 7.6983 152.226 6.55063C152.556 6.07083 152.747 5.50988 152.779 4.92885C152.811 4.34782 152.683 3.76902 152.409 3.2558C152.103 2.78581 151.673 2.41025 151.166 2.17098C150.659 1.93172 150.096 1.83824 149.538 1.90114C148.105 2.01006 146.716 2.45019 145.482 3.1869C143.342 4.44378 141.265 5.86609 139.255 7.24046L137.799 8.23151C136.966 8.69981 136.249 9.34722 135.698 10.127C135.419 10.6189 135.241 11.1623 135.177 11.7244C135.113 12.2866 135.163 12.8559 135.324 13.3983C135.665 14.0408 136.238 14.5299 136.926 14.7667Z" fill="black"/>
<path d="M147.705 57.6557C145.479 56.4743 143.148 55.4242 140.892 54.4128L139.813 53.9271C138.968 53.5068 137.991 53.4379 137.096 53.7355C136.788 53.8539 136.509 54.0337 136.274 54.2639C136.039 54.4942 135.854 54.7701 135.729 55.0745C135.289 56.1003 135.118 58.1363 135.957 59.1352C138.643 62.3283 142.253 64.4634 147.321 65.8548L147.587 65.9276L147.826 65.7879C148.033 65.6671 148.295 65.5496 148.573 65.4249C149.337 65.083 150.203 64.6949 150.579 63.9316C151.09 62.8959 150.834 61.2965 150.317 60.2522C149.723 59.1466 148.814 58.2426 147.705 57.6557Z" fill="black"/>
<path d="M55.1176 49.8796C56.299 49.9118 57.4949 49.9038 58.6514 49.8972L59.5564 49.8921L59.5808 50.1775L60.2424 50.112C60.9558 50.0424 61.6698 49.9807 62.3846 49.919C64.0825 49.772 65.8389 49.6203 67.5605 49.3624C67.9556 49.3294 68.3403 49.2155 68.6894 49.0274C69.0386 48.8394 69.3458 48.5814 69.5906 48.2695C69.836 47.9577 70.0146 47.5987 70.115 47.2148C70.2154 46.831 70.2351 46.4306 70.1741 46.0387C70.1491 45.6429 70.0448 45.2562 69.8662 44.902C69.6884 44.5477 69.4396 44.2333 69.137 43.9775C68.8338 43.7218 68.482 43.53 68.1027 43.4138C67.7233 43.2977 67.3249 43.2597 66.9304 43.3018C63.2786 43.4987 58.9553 43.7802 54.573 44.3447C53.9397 44.5256 53.3669 44.8739 52.915 45.353C52.4631 45.8322 52.1488 46.4243 52.0053 47.0671C51.9598 47.3863 51.9827 47.7117 52.0726 48.0215C52.1624 48.3312 52.3171 48.6182 52.5264 48.8636C52.8654 49.2018 53.2705 49.4665 53.7163 49.6413C54.1622 49.8162 54.6391 49.8973 55.1176 49.8796Z" fill="black"/>
<path d="M76.7683 48.7946H76.7762C77.9326 48.7946 80.3381 48.7913 80.6998 46.1207C80.7549 45.7629 80.7319 45.3975 80.6308 45.0497C80.5304 44.7019 80.3552 44.3802 80.1176 44.1071C79.6844 43.6772 79.1659 43.3431 78.5949 43.1265C78.0245 42.9098 77.4148 42.8155 76.805 42.8496C75.2417 42.8299 74.0793 43.1737 73.3763 43.8793C73.1335 44.1267 72.9445 44.4215 72.8204 44.7452C72.6957 45.0689 72.6393 45.4146 72.6544 45.7609C72.6898 47.6046 74.3037 48.7946 76.7683 48.7946Z" fill="black"/>
</svg>

<svg xmlns="http://www.w3.org/2000/svg" width="155" height="75" fill="none" viewBox="0 0 155 75"><path fill="#000" d="M127.701 2.193c-1.561-1.07-3.654-1.23-5.896-.445a22.6 22.6 0 0 0-3.751 1.776l-2.855 1.627c-5.3 3.02-10.779 6.141-16.109 9.32a66.6 66.6 0 0 0-7.802 5.432 5.95 5.95 0 0 1-4.064 1.575h-.04c-9.882-.048-19.929-.043-29.643-.038l-10.096.004v.219l-10.163.187q-14.296.262-28.593.539c-3.75.075-5.85 1.755-6.612 5.29a36.7 36.7 0 0 0-.93 7.122c-.119 6.788-.065 13.757-.014 19.906.034 4.196 1.781 6.217 5.842 6.76a70.5 70.5 0 0 0 9.823.725c5.19-.055 10.463-.225 15.562-.388 2.673-.086 5.345-.17 8.017-.241l4.08-.108c14.557-.384 29.61-.782 44.415-1.099a11 11 0 0 1 4.582.779c5.351 2.384 10.76 4.887 15.992 7.306q4.377 2.024 8.761 4.037c1.157.513 2.359.922 3.589 1.22a8.4 8.4 0 0 0 2.077.303c1.87 0 3.031-.957 3.807-3.02a23.6 23.6 0 0 0 1.379-7.063l.047-.891c.552-10.524 1.123-21.407 1.366-32.123.18-7.95-.077-15.914-.328-23.616-.067-2.254-.934-4.058-2.443-5.095m-5.645 9.499-2.283 50.27-22.4-9.201-1.741-26.692zM12.299 54.442l-3.635-.244c-1.043-4.951-.95-19.59.157-24.704l4.686-.213zm75.616-27.194v24.86l-65.21 2.319a132 132 0 0 1-1.171-15.304c-.123-3.216-.249-6.535-.525-9.877 10.867-.787 21.844-.853 32.465-.919 11.28-.069 22.936-.138 34.439-1.076zm61.549 2.581c-3.78.337-7.512.991-10.341 1.523a3.434 3.434 0 0 0-2.941 3.494c.013 1.772 1.151 3.03 3.043 3.373a35 35 0 0 0 3.85.4c.614.04 1.255.083 1.931.141l.073.007.072-.01c.472-.066.978-.116 1.505-.17a23.7 23.7 0 0 0 4.16-.677c2.328-.666 3.555-2.613 3.054-4.845a3.92 3.92 0 0 0-4.406-3.236m-12.538-15.062q.257.117.497.262l.24.156.277-.069c.333-.082.633-.14.906-.196a5.3 5.3 0 0 0 1.531-.456l.558-.299c2.828-1.513 5.751-3.077 8.542-4.773a8.6 8.6 0 0 0 2.749-2.841 3.17 3.17 0 0 0 .183-3.295 3.02 3.02 0 0 0-2.871-1.355 9.3 9.3 0 0 0-4.056 1.286c-2.14 1.257-4.217 2.68-6.227 4.053l-1.456.992a6.4 6.4 0 0 0-2.101 1.895 4.2 4.2 0 0 0-.374 3.271 2.87 2.87 0 0 0 1.602 1.369m10.779 42.889c-2.226-1.182-4.557-2.232-6.813-3.243l-1.079-.486a3.57 3.57 0 0 0-2.717-.191 2.4 2.4 0 0 0-1.367 1.339c-.44 1.025-.611 3.061.228 4.06 2.686 3.193 6.296 5.328 11.364 6.72l.266.073.239-.14a9 9 0 0 1 .747-.363c.764-.342 1.63-.73 2.006-1.493.511-1.036.255-2.636-.262-3.68a6.3 6.3 0 0 0-2.612-2.596"/><path fill="#000" d="M55.118 49.88c1.181.032 2.377.024 3.533.017l.905-.005.025.285.661-.065c.714-.07 1.428-.131 2.143-.193 1.697-.147 3.454-.299 5.176-.557a2.887 2.887 0 0 0 2.613-3.323 2.935 2.935 0 0 0-3.244-2.737c-3.651.197-7.975.478-12.357 1.043a3.66 3.66 0 0 0-2.568 2.722 2.27 2.27 0 0 0 .521 1.797 3.5 3.5 0 0 0 2.592 1.016m21.65-1.085h.008c1.157 0 3.562-.004 3.924-2.674a2.48 2.48 0 0 0-.582-2.014 4.35 4.35 0 0 0-3.313-1.257c-1.563-.02-2.726.324-3.429 1.03a2.53 2.53 0 0 0-.722 1.88c.036 1.845 1.65 3.035 4.114 3.035"/></svg>
